X:14
T:New Years Day
S:Petrie's Second Collection of Strathspey Reels and Country Dances &c.
Z:Steve Wyrick , 6/5/04
N:Petrie's Second Collection, page 5
% Gore's Index gives earliest publication as Alexander Reinagle's
% "A Coll. Of the Most Fav. Scots Tunes" 1782
L:1/8
M:6/8
R:Jig
K:F
A|FGF fgf|fFF F2A|FGF f>ga|gGG G2A|
  FGF fgf|c2b a2g|fed cAf |cAF F2::A|
  cdc AcA|cdc A2d|cdc fga |gGG G2A|
%Petrie shows the last note in the last measure above as a 1/4 note -SW
  cdc AcA|c2b a2g|fed cAf |cAF F2:|
